src/assets/images/ic_message_transfer.svg

<?xml version="1.0" encoding="UTF-8"?>
<svg width="14px" height="12px" viewBox="0 0 14 12" version="1.1" xmlns="http://www.w3.org/2000/svg" xmlns:xlink="http://www.w3.org/1999/xlink">
    <!-- Generator: Sketch 52.2 (67145) - http://www.bohemiancoding.com/sketch -->
    <g stroke="none" stroke-width="1" fill="none" fill-rule="evenodd">
        <g>
            <g>
                <path d="M2,0.5 C1.17157288,0.5 0.5,1.17157288 0.5,2 L0.5,10 C0.5,10.8284271 1.17157288,11.5 2,11.5 L12,11.5 C12.8284271,11.5 13.5,10.8284271 13.5,10 L13.5,2 C13.5,1.17157288 12.8284271,0.5 12,0.5 L2,0.5 Z" id="Rectangle-3" stroke="#B8BDC7"></path>
                <path d="M3.50021578,4.61663628 C3.22407341,4.61663628 3,4.8087608 3,5.06366146 C3,5.31856211 3.22385763,5.52519992 3.5,5.52519992 L10.4297114,5.52519992 C10.7058537,5.52519992 10.9297114,5.30134229 10.9297114,5.02519992 C10.9297114,4.88660005 10.8721805,4.75421843 10.7708514,4.65965449 L8.8919572,2.90620318 C8.69776655,2.72497752 8.3811888,2.72337829 8.18486101,2.90263119 C7.98853321,3.0818841 7.98680071,3.37410971 8.18099135,3.55533537 L9.39162448,4.61663628 L3.50021578,4.61663628 Z" id="Path-3" fill="#B8BDC7" fill-rule="nonzero"></path>
                <path d="M3.5,8.29443069 C3.22385763,8.29443069 3,8.50106849 3,8.75596915 C3,9.0108698 3.22385763,9.21750761 3.5,9.21750761 L10.4399191,9.21750761 C10.7160615,9.21750761 10.9399191,8.99364998 10.9399191,8.71750761 C10.9399191,8.57890774 10.8823883,8.44652612 10.7810592,8.35196219 L8.90216494,6.59851087 C8.7079743,6.41728521 8.39139655,6.41568598 8.19506875,6.59493888 C7.99874095,6.77419179 7.99700845,7.0664174 8.1911991,7.24764306 L9.31287452,8.29443069 L3.5,8.29443069 Z" id="Path-3-Copy" fill="#B8BDC7" fill-rule="nonzero" transform="translate(7.005350, 7.839523) scale(-1, -1) translate(-7.005350, -7.839523) "></path>
            </g>
        </g>
    </g>
</svg>

<svg width="14" height="12" xmlns="http://www.w3.org/2000/svg"><g fill="none" fill-rule="evenodd"><path d="M2 .5A1.5 1.5 0 00.5 2v8A1.5 1.5 0 002 11.5h10a1.5 1.5 0 001.5-1.5V2A1.5 1.5 0 0012 .5H2z" stroke="#B8BDC7"/><path d="M3.5 4.617c-.276 0-.5.192-.5.447s.224.461.5.461h6.93a.5.5 0 00.34-.865L8.893 2.906a.53.53 0 00-.707-.003.437.437 0 00-.004.652l1.21 1.062h-5.89zM10.51 7.385c.277 0 .5-.207.5-.462s-.223-.461-.5-.461H3.57a.5.5 0 00-.34.865l1.879 1.754a.53.53 0 00.707.003.437.437 0 00.004-.653L4.698 7.385h5.813z" fill="#B8BDC7" fill-rule="nonzero"/></g></svg>
